X:1191
T:Put on thy Smock a Monday.
C:John Malchair's Third Collection of Tunes
F:https://www.vwml.org/record/Malchair/3619/p119
F:www.vwml.org/topics/historic-dance-and-tune-books/Malchair
Z:Eric Conrad Feb 2020
N:NB1 Repeats added.  There is just one part.
N:NB2 Meter changed from cut3 (6/4) to 6/8. Note lengths are accordingly half of those in MS.
M:6/8   % time signature says "cut 3", barring as in 6/4; changed here to 6/8
L:1/8   % note lengths halved, consistent witch change from 6/4-6/8
K:C
|: "_NB1,2"c | c2G E2G | d3- d2 G | c2B c2d | e3- e2c |
d>ef e>dc | d2B G>AB | c2G E2G | c3- c2 :|







